X:1
T:4
T:4
T:Études enfantines op. 37
T:Henry Lemoine
C:Henri Lemoine
%%score { 1 | 2 } { 3 4 }
L:1/8
Q:1/4=120
M:2/4
K:G
V:1 treble nm="Piano" snm="Pno."
V:2 bass 
V:3 treble nm="Klavír" snm="Klv."
V:4 bass nm="Klavír" snm="Klv."
V:1
"_legato""^Allegretto"!mf! !1!B/!2!c/!3!^c/!4!d/ !1!d/!2!e/!3!f/!4!g/ | %1
 !1!B/!2!c/!3!^c/!4!d/ !1!d/!2!e/!3!f/!4!g/ | !1!e/!2!=f/!3!^f/!4!g/ !1!g/!2!a/!3!b/!4!c'/ | %3
 !1!e/!2!=f/!3!^f/!4!g/ !1!g/!2!a/!3!b/!4!c'/ | !1!a/!2!b/!3!c'/!4!^c'/ !1!d'/!2!e'/!3!f'/!4!g'/ | %5
 a'/g'/f'/e'/ !1!d'/!4!=c'/b/a/ | g/d'/c'/b/ a/g/!3!f/e/ | !1!d/!4!e/d/c/ !1!B/!4!c/!3!B/!2!A/ | %8
"_legato"!mf! !1!B/!2!c/!3!^c/!4!d/ !1!d/!2!e/!3!f/!4!g/ | %9
 !1!B/!2!c/!3!^c/!4!d/ !1!d/!2!e/!3!f/!4!g/ | !1!e/!2!=f/!3!^f/!4!g/ !1!g/!2!a/!3!b/!4!c'/ | %11
 !1!e/!2!=f/!3!^f/!4!g/ !1!g/!2!a/!3!b/!4!c'/ | !1!a/!2!b/!3!c'/!4!^c'/ !1!d'/!2!e'/!3!f'/!4!g'/ | %13
 a'/g'/f'/e'/ !1!d'/!4!=c'/b/a/ | g/d'/c'/b/ a/g/!3!f/e/ | !1!d/!4!e/d/c/ !1!B/!4!c/!3!B/!2!A/ | %16
 G/!5!d/c/B/ A/!4!c/B/A/ | G/!5!d/c/B/ A/!4!c/B/A/ | G/!5!d/c/B/ A/!4!c/B/A/ | %19
 G/!5!d/c/B/ A/!4!c/B/A/ | .G z z2 |!ff! !fermata![Bdg]4 |] %22
V:2
 [G,B,D]2 !^![G,B,D]2- | [G,B,D]2 [G,B,D]2 | [G,CE]2 !^![G,CE]2- | [G,CE]2 [G,CE]2 | %4
 [G,CD]2 !^![G,CD]2- | [G,CD]2 [G,CD]2 | [G,B,D]4 | [G,CD]4 | [G,B,D]2 !^![G,B,D]2- | %9
 [G,B,D]2 [G,B,D]2 | [G,CE]2 !^![G,CE]2- | [G,CE]2 [G,CE]2 | [G,CD]2 !^![G,CD]2- | %13
 [G,CD]2 [G,CD]2 | [G,B,D]4 | [G,CD]4 | [G,B,D] z!>(! ((([G,CD]2!>)! | %17
 [G,B,D]))) z!>(! ([G,CD]2!>)! | [G,B,D]) z!>(! ([G,CD]2!>)! | [G,B,D]) z!>(! ([G,CD]2!>)! | %20
 .[G,B,D]2) z2 | !fermata![G,D]4 |] %22
V:3
"_legato"!mf! !1!B/!2!c/!3!^c/!4!d/ !1!d/!2!e/!3!f/!4!g/ | %1
 !1!B/!2!c/!3!^c/!4!d/ !1!d/!2!e/!3!f/!4!g/ | !1!e/!2!=f/!3!^f/!4!g/ !1!g/!2!a/!3!b/!4!c'/ | %3
 !1!e/!2!=f/!3!^f/!4!g/ !1!g/!2!a/!3!b/!4!c'/ | !1!a/!2!b/!3!c'/!4!^c'/ !1!d'/!2!e'/!3!f'/!4!g'/ | %5
 a'/g'/f'/e'/ !1!d'/!4!=c'/b/a/ | g/d'/c'/b/ a/g/!3!f/e/ | !1!d/!4!e/d/c/ !1!B/!4!c/!3!B/!2!A/ | %8
"_legato"!mf! !1!B/!2!c/!3!^c/!4!d/ !1!d/!2!e/!3!f/!4!g/ | %9
 !1!B/!2!c/!3!^c/!4!d/ !1!d/!2!e/!3!f/!4!g/ | !1!e/!2!=f/!3!^f/!4!g/ !1!g/!2!a/!3!b/!4!c'/ | %11
 !1!e/!2!=f/!3!^f/!4!g/ !1!g/!2!a/!3!b/!4!c'/ | !1!a/!2!b/!3!c'/!4!^c'/ !1!d'/!2!e'/!3!f'/!4!g'/ | %13
 a'/g'/f'/e'/ !1!d'/!4!=c'/b/a/ | g/d'/c'/b/ a/g/!3!f/e/ | !1!d/!4!e/d/c/ !1!B/!4!c/!3!B/!2!A/ | %16
 G/!5!d/c/B/ A/!4!c/B/A/ | G/!5!d/c/B/ A/!4!c/B/A/ | G/!5!d/c/B/ A/!4!c/B/A/ | %19
 G/!5!d/c/B/ A/!4!c/B/A/ | .G z z2 |!ff! !fermata![Bdg]4 |] %22
V:4
 [G,B,D]2 !^![G,B,D]2- | [G,B,D]2 [G,B,D]2 | [G,CE]2 !^![G,CE]2- | [G,CE]2 [G,CE]2 | %4
 [G,CD]2 !^![G,CD]2- | [G,CD]2 [G,CD]2 | [G,B,D]4 | [G,CD]4 | [G,B,D]2 !^![G,B,D]2- | %9
 [G,B,D]2 [G,B,D]2 | [G,CE]2 !^![G,CE]2- | [G,CE]2 [G,CE]2 | [G,CD]2 !^![G,CD]2- | %13
 [G,CD]2 [G,CD]2 | [G,B,D]4 | [G,CD]4 | [G,B,D] z!>(! ((([G,CD]2!>)! | %17
 [G,B,D]))) z!>(! ([G,CD]2!>)! | [G,B,D]) z!>(! ([G,CD]2!>)! | [G,B,D]) z!>(! ([G,CD]2!>)! | %20
 .[G,B,D]2) z2 | !fermata![G,D]4 |] %22

